X: 6441
T: Castleblaney Piper, The
R: jig
M: 6/8
K: Dmajor
|:FDF ABc|dfd AGF|GBG EFG|~F3 GFE|
FDF AFA|ded cde|~f3 gec|1 edc dAG:|2 edc d2e||
fed gfe|fdB AGF|~G3 FGA|BGE E2e|
f2a gfe|fed cde|~f3 gec|edc d2e|
fed gfe|fdB AGF|GBG EFG|~F3 GFE|
~F3 ~A3|~d3 cde|faf gec|edc dAG||

